X:470
T:Reel 470
M:4/4
K:Amin
L:1/8
GF|EA, (3B,A,G, B,G,DG,|EA,A,B, A,G,DCB,G,|B,A, (3G,A,G, B,G, (3B,A,G, |A,B,AF GFED|EA, (3A,G,A, EDB,D|EA, (3A,G,A, B,DDF|EDB,G, G,A,B,C|EGFA GEDC|EAAG EFGE|DA,A,G, B,DD2|EAAG E2GA|BGAF GEDB,|EAAG EAAG|EDEF G2FG| (3EFE  (3EFG AcBA| (3EFG FA GEDF|
